X:1
T:The Invincible Armada
M:4/4
L:1/4
K:C
 G2 G G| A2 A A|B/2-c/2 d c A| B2 B3/2- c/2|B/2-c/2 d c B| A A A d|\
 c BA/2-G/2 A| G3 G| G2 G2| A2 A A|B/2-c/2 d c A| B2 B3/2- c/2|B/2-c/2 d c B|\
 A A A d| c BA/2-G/2 A| G3 G| G2 A2| B2 B3/2 B/2| c A B ^G| A3 A| d3/2 c/2 BA/2-G/2|\
 A A AG/2-F/2| E G FE/2-F/2| G3 G| G2 A2| B2 B2| c A B ^G| A3 A| d3/2 c/2 BA/2-G/2|\
 A A AG/2-F/2| E G FE/2-F/2| G3 z|||
